X:773
T:Old Dumbarton Drums
R:Country Dances
B:The Athole Collection
M:C|
L:1/8
K:F
c>B|A2A>B ABGA|F2c2~c2BA|GFGA BAGF|D2d2d2cB|
A2A>B ABGA|F2c2~c2BA|GBAc BGAF|D2d2d2:|
|:c/d/e|f2f>g fgag|f2d2c2A2|f2fg fgag|~f2d2d2fg|
agfa g2fe|dfeg gfed|dcBA AGFE|D2d2d2:|

